<?xml version="1.0" encoding="UTF-8"?>
<map version="1.10" tiledversion="1.12.1" orientation="orthogonal" renderorder="right-down" width="20" height="18" tilewidth="8" tileheight="8" infinite="0" backgroundcolor="#e0f8cf" nextlayerid="2" nextobjectid="1">
 <tileset firstgid="1" source="frame.tsx"/>
 <layer id="1" name="Tile Layer 1" width="20" height="18">
  <data encoding="csv">
0,0,0,0,0,0,0,0,0,0,0,0,0,0,0,0,0,0,0,0,
0,0,0,0,0,0,0,0,0,0,0,0,0,0,0,0,0,0,0,0,
0,1,2,2,2,2,2,2,3,0,0,1,2,2,2,2,2,2,3,0,
0,4,5,5,5,5,5,5,6,0,0,4,5,5,5,5,5,5,6,0,
0,4,5,5,5,5,5,5,6,0,0,7,8,8,8,8,8,8,9,0,
0,4,5,5,5,5,5,5,6,0,0,0,0,0,0,0,0,0,0,0,
0,7,8,8,8,8,8,8,9,0,0,0,0,0,0,0,0,0,0,0,
0,0,0,0,0,0,0,0,0,0,0,1,2,2,2,2,2,2,3,0,
0,1,2,2,2,2,2,2,3,0,0,4,5,5,5,5,5,5,6,0,
0,4,5,5,5,5,5,5,6,0,0,7,8,8,8,8,8,8,9,0,
0,4,5,5,5,5,5,5,6,0,0,0,0,0,0,0,0,0,0,0,
0,4,5,5,5,5,5,5,6,0,0,0,0,0,0,0,0,0,0,0,
0,4,5,5,5,5,5,5,6,0,0,1,2,2,2,2,2,2,3,0,
0,4,5,5,5,5,5,5,6,0,0,4,5,5,5,5,5,5,6,0,
0,7,8,8,8,8,8,8,9,0,0,7,8,8,8,8,8,8,9,0,
0,0,0,0,0,0,0,0,0,0,0,0,0,0,0,0,0,0,0,0,
0,0,0,0,0,0,0,0,0,0,0,0,0,0,0,0,0,0,0,0,
0,0,0,0,0,0,0,0,0,0,0,0,0,0,0,0,0,0,0,0
</data>
 </layer>
</map>
